public/sheesh/vuesaxlinearcopy.svg

<svg fill="none" height="24" viewBox="0 0 25 24" width="25" xmlns="http://www.w3.org/2000/svg" xmlns:xlink="http://www.w3.org/1999/xlink"><linearGradient id="a"><stop offset="0" stop-color="#34c796"/><stop offset="1" stop-color="#0b7a55"/></linearGradient><linearGradient id="b" gradientUnits="userSpaceOnUse" x1="9.5" x2="9.5" xlink:href="#a" y1="8" y2="22"/><linearGradient id="c" gradientUnits="userSpaceOnUse" x1="15.5" x2="15.5" xlink:href="#a" y1="2" y2="16"/><g stroke-linecap="round" stroke-linejoin="round" stroke-width="1.5"><path d="m16.5 12.9v4.2c0 3.5-1.4 4.9-4.9 4.9h-4.2c-3.5 0-4.9-1.4-4.9-4.9v-4.2c0-3.5 1.4-4.9 4.9-4.9h4.2c3.5 0 4.9 1.4 4.9 4.9z" stroke="url(#b)"/><path d="m22.5 6.9v4.2c0 3.5-1.4 4.9-4.9 4.9h-1.1v-3.1c0-3.5-1.4-4.9-4.9-4.9h-3.1v-1.1c0-3.5 1.4-4.9 4.9-4.9h4.2c3.5 0 4.9 1.4 4.9 4.9z" stroke="url(#c)"/></g></svg>

<svg width="25" height="24" viewBox="0 0 25 24" fill="none" xmlns="http://www.w3.org/2000/svg">
<path d="M16.5 12.9V17.1C16.5 20.6 15.1 22 11.6 22H7.4C3.9 22 2.5 20.6 2.5 17.1V12.9C2.5 9.4 3.9 8 7.4 8H11.6C15.1 8 16.5 9.4 16.5 12.9Z" stroke="url(#paint0_linear_342_13530)" stroke-width="1.5" stroke-linecap="round" stroke-linejoin="round"/>
<path d="M22.5 6.9V11.1C22.5 14.6 21.1 16 17.6 16H16.5V12.9C16.5 9.4 15.1 8 11.6 8H8.5V6.9C8.5 3.4 9.9 2 13.4 2H17.6C21.1 2 22.5 3.4 22.5 6.9Z" stroke="url(#paint1_linear_342_13530)" stroke-width="1.5" stroke-linecap="round" stroke-linejoin="round"/>
<defs>
<linearGradient id="paint0_linear_342_13530" x1="9.5" y1="8" x2="9.5" y2="22" gradientUnits="userSpaceOnUse">
<stop stop-color="#34C796"/>
<stop offset="1" stop-color="#0B7A55"/>
</linearGradient>
<linearGradient id="paint1_linear_342_13530" x1="15.5" y1="2" x2="15.5" y2="16" gradientUnits="userSpaceOnUse">
<stop stop-color="#34C796"/>
<stop offset="1" stop-color="#0B7A55"/>
</linearGradient>
</defs>
</svg>
